icons/wallet.svg

<svg xmlns="http://www.w3.org/2000/svg" width="24" height="24" viewBox="0 0 24 24">
  <path d="M20,2 C21.1045695,2 22,2.8954305 22,4 L22.0009007,6.17102423 C21.6878673,6.06026977 21.350972,6 21,6 L15,6 C13.3431458,6 12,7.34314575 12,9 L12,15 C12,16.6568542 13.3431458,18 15,18 L21,18 C21.350972,18 21.6878673,17.9397302 22.0009007,17.8289758 L22,20 C22,21.1045695 21.1045695,22 20,22 L4,22 C2.8954305,22 2,21.1045695 2,20 L2,4 C2,2.8954305 2.8954305,2 4,2 L20,2 Z M21,8 C21.5522847,8 22,8.44771525 22,9 L22,15 C22,15.5522847 21.5522847,16 21,16 L15,16 C14.4477153,16 14,15.5522847 14,15 L14,9 C14,8.44771525 14.4477153,8 15,8 L21,8 Z M17.5,10.5 C16.6715729,10.5 16,11.1715729 16,12 C16,12.8284271 16.6715729,13.5 17.5,13.5 C18.3284271,13.5 19,12.8284271 19,12 C19,11.1715729 18.3284271,10.5 17.5,10.5 Z"/>
</svg>

<svg xmlns="http://www.w3.org/2000/svg" viewBox="0 0 24 24">
  <path d="M20 2a2 2 0 0 1 2 2v2.17A3 3 0 0 0 21 6h-6a3 3 0 0 0-3 3v6a3 3 0 0 0 3 3h6a3 3 0 0 0 1-.17V20a2 2 0 0 1-2 2H4a2 2 0 0 1-2-2V4c0-1.1.9-2 2-2h16zm1 6a1 1 0 0 1 1 1v6a1 1 0 0 1-1 1h-6a1 1 0 0 1-1-1V9a1 1 0 0 1 1-1h6zm-3.5 2.5a1.5 1.5 0 1 0 0 3 1.5 1.5 0 0 0 0-3z"/>
</svg>
